qdrant-landing/themes/qdrant-2024/static/img/home/blured-line-2.svg

<svg xmlns="http://www.w3.org/2000/svg" width="1440" height="1397" fill="none" viewBox="0 0 1440 1397"><path stroke="#9494ff" stroke-width="16.653" d="m2025.12 201.224-555.94 320.134a623.8 623.8 0 0 1-279.4 82.406l-75.85 3.883a392.85 392.85 0 0 0-228.949 88.506c-98.26 80.537-229.401 108.585-352.007 75.284l-80.204-21.784a554.1 554.1 0 0 0-355.682 22.146l-34.855 14.31c-190.02 78.015-405.427 63.843-583.588-38.394l-228.159-130.928" opacity=".8"/></svg>

<svg width="1440" height="1397" viewBox="0 0 1440 1397" fill="none" xmlns="http://www.w3.org/2000/svg" xmlns:xlink="http://www.w3.org/1999/xlink">
<g opacity="0.8">
<path d="M2025.12 201.224L1469.18 521.358C1383.86 570.491 1288.11 598.73 1189.78 603.764L1113.93 607.647C1030.12 611.938 949.885 642.954 884.981 696.153C786.721 776.69 655.58 804.738 532.974 771.437L452.77 749.653C335.005 717.667 209.975 725.452 97.0881 771.799L62.2329 786.109C-127.787 864.124 -343.194 849.952 -521.355 747.715L-749.514 616.787" stroke="#9494FF" stroke-width="16.6534"/>
</g>
</svg>
